X:1
T:The Cumberland Coal
M:3/4
L:1/4
K:G
d/2-B/2| G3/2 G/2G/2 G/2| B/2- d3/2e/2-d/2| c3/2 c/2 c| e/2 g3/2 e|\
 d3/2 d/2 d| e/2 d3/2 B| B3/2 c/2 B| A3/2 d/2- B| G3/2 G/2- G| B/2 d3/2G/2-G/2|\
 c3/2 c/2 c| e/2 g3/2 e| d3/2 d/2 d| e d B| A3/2 B/2 A| G2||
